X: 133
T: Zai yao lanban guxiang Become a young woman
%%abc-version 2.0
%%abcx-abcm2ps-target-version 5.9.1 (29 Sep 2008)
%%abc-creator hum2abc beta
%%abcx-conversion-date 2013/10/02 07:44:27
%%abc-edited-by Helmut Schaffrath
%%humdrum-veritas 2760916051
%%humdrum-veritas-data 1691709781
%%continueall 1
%%barnumbers 0
L: 1/4
M: 2/4
K: C
DC/ A,/ [I:setbarnb 1]| 
DE | 
A2- | 
Ad | 
AA/ G/ | 
GE/ C/ | 
D3/E/ | 
DC | 
A,E | 
G,A | 
E2- | 
EA | 
E3/C/ | 
DC | 
A,2- | 
A,A/ z/ |]  



